X:1
T:Title
%%score { ( 1 4 ) | ( 2 3 ) }
L:1/8
M:4/4
K:F
V:1 treble nm="Grand Piano"
V:4 treble 
V:2 bass 
V:3 bass 
V:1
 z4[Q:1/4=100] [Ac]3 [GB] | A2 AA A2 A2 | B2 B6 | [EG]4 [Ec]2 [GB]2 | A6 FF | %5
 [DBd]4 [DBd]2 [DBd]2 | [DBd]2 [CAc]4 FF | d3 d f3 d | [FBd]2 [FAc]4 [CFA]2 | %9
 E2- [Ec]2 [D=B]2 [Fd]2 | [Ec]6 z2 | B6 c2 | B2 G4 z2 | A6 B2 | A4 z4 | [B,EG]4 [CEA]3 [CG] | %16
[M:3/4] [A,CF]6 |] %17
V:2
 z4 [F,C]3 [F,C] | [F,CF]2 [F,CF][F,CF] [F,CF]2 [F,CF]2 | [G,CE]2 [G,CE]6 | [C,C]4 [C,G,]2 [C,C]2 | %4
 [F,CF]6 F,F, | F,4 F,2 F,2 | F,2 F,4 F,F, | z4 D4 | F,2 F,4 F,2 | G,2 G,2 [G,,G,]4 | [C,G,]6 z2 | %11
 [CG]6 [CA]2 | [B,G]2 [CE]4 z2 | [F,C]6 [F,D]2 | [F,C]2 F,2[K:treble] F2 z2 | C,4 z2 z B, | %16
[M:3/4] F,6 |] %17
V:3
 x8 | x8 | x8 | x8 | x8 | x8 | x8 | [F,B,F]3 [F,B,F] [F,F]3- [F,B,F] | x8 | x8 | x8 | x8 | x8 | %13
 x8 | x4[K:treble] x4 | z4 C,4 |[M:3/4] x6 |] %17
V:4
 x8 | x8 | x8 | x8 | x8 | x8 | x8 | x8 | x8 | [CG]2 z2 z4 | x8 | x8 | x8 | x8 | z2 A,4 z2 | x8 | %16
[M:3/4] x6 |] %17

